X:50
T:La petite galope de Jules Verret
M:4/4
L:1/8
K:D
A2d2 ffdf | abaf gage | AAc2 eece | b2a2 abaf |
A2d2 ffdf | agaf gage | AAc2 eece |1 b2a2 d4 :|2 b2a2 d3A |:
dfe2 d2AA | FAAF Adf2 | d2BB GBBG | Bdg2 e2ce |
AAA2 a2g2 |1 a2b2 a2fA :|2 a2b2 c2d2 |]

